X:0
T:Pipe Major Donald Maclean of Lewis
C:Pipe Major Donald Macleod
M:6/8
L:1/8
R:march
Q:3/8=84
K:AMix
% mixolydian/dorian/minor pentatonic, CF-gap A-final
e |A>BG A3  |e>dg e>dB|A>BA G2B |d2e  e>dB |
   A>BG A3  |e>dg e>dB|G>Bg e>dB|A3   A2  :|
g |a2e  e2g |a>ee e>dB|A>BA G2B |d2e  e>dB |
[1 a2e  e2g |a>ee e>dB|G>Bg e>dB|A3   A2  :|
[2 A>BG A3  |e>dg e>dB|G>Bg e>dB|A3   A2  ||
e |A>ee d>ee|A>ee e>dB|A>BA G>GG|B<de e>dB |
   A>ee d>ee|A>ee e>dB|G>Bg e>dB|A3   A2  :|
e |A2a  a>ga|g>ee e>dB|A>BA G2B |d2e  e>dB |
[1 A2a  a>ga|g>ee e>dB|G>Bg e>dB|A3   A2  :|
[2 A>BG A3  |e>dg e>dB|G>Bg e>dB|A3   A2  |]

The transpositions of the mixolydian/dorian/minor pentatonic mode are:

